X:1
T:The School Of Velocity op.299 no.1 Czerny 
T:Carl Czerny 
%%score { 1 | 2 }
L:1/8
Q:1/4=187
M:4/4
K:C
V:1 treble nm="Piano"
V:2 bass 
V:1
"^Presto" z/ c'/b/a/ g/f/e/d/ c/B/A/G/ F/E/D/C/ | z/ d'/c'/b/ a/g/f/e/ d/c/B/A/ G/F/E/D/ | %2
 z/ e'/d'/c'/ b/a/g/f/ e/d/c/B/ A/G/F/E/ | z/ f'/e'/d'/ c'/b/a/g/ f/e/d/c/ B/A/G/F/ | %4
 z/ G/A/B/ c/d/e/f/!8va(! g/a/b/c'/ d'/e'/f'/g'/!8va)! | %5
 z/ A/B/c/ d/e/f/g/!8va(! a/b/c'/d'/ e'/f'/g'/a'/!8va)! | %6
 z/ B/c/d/ e/f/g/a/!8va(! b/c'/d'/e'/ f'/g'/a'/b'/!8va)! | %7
 z/ c/d/e/ f/g/a/b/!8va(! c'/d'/e'/f'/ g'/a'/b'/c''/ | %8
 z/ d'/e'/f'/ g'/a'/b'/^c''/ d''/a'/f''/e''/ d''/a'/f''/e''/ | %9
 d''/a'/f''/e''/ d''/a'/f''/e''/ d''/a'/f''/e''/ d''/a'/f''/e''/ | %10
 d''/a'/f''/e''/ d''/c''/b'/a'/ g'/f'/e'/d'/ c'/b/a/g/!8va)! | %11
 f/e/d/c/ B/A/G/F/ E/D/C/B,/ D/C/B,/A,/ | G,/A,/B,/C/ D/E/F/G/ E/C/D/E/ F/G/A/B/ | %13
 c/E/F/G/ A/B/c/d/ e/G/A/B/ c/d/e/f/ | g/c/d/e/ f/g/a/b/ c'/b/a/g/ e'/d'/c'/b/ | %15
 c'/b/a/g/ e'/d'/c'/b/ c'/b/a/g/ e'/d'/c'/b/ | c'/b/a/g/ a/b/c'/d'/ e'/d'/c'/b/ c'/d'/e'/f'/ | %17
!8va(! a'/g'/f'/e'/ f'/g'/a'/b'/ c''/b'/a'/g'/ a'/b'/c''/d''/ | %18
 ^d''/e''/=d''/c''/ b'/a'/g'/!8va)!f/ e'/d'/c'/b/ a/g/f/e/ | %19
 d/d'/c'/b/ a/g/f/e/ d/c/B/A/ G/F/E/D/ | C/ z/ z z2 [cegc']/ z/ z z2 | C2 z2 z4 |] %22
V:2
 [C,E,G,]8 | [B,,F,G,]8 | [C,E,G,]8 | [D,F,G,B,]8 | [E,G,C]8 | [F,A,C]8 | [G,DF]8 | [A,CE]8 | %8
 [F,A,D]8- | [F,A,D]8- | [F,A,D]2 z2 z4 | z2 z4 [^F,,C,_E,]2 | [G,,C,=E,]8- | [G,,C,=E,]8- | %14
 [G,,C,=E,]8- | [G,,C,=E,]8- | [G,,C,=E,]8- | [G,,C,=E,]8- | [G,,C,=E,]2 z2 [G,CE]2 z2 | %19
 [G,B,F]2 z2 [G,,B,,F,]2 z2 | [C,E,]/ z/ z z2 [C,E,G,C]/ z/ z z2 | [C,,C,]2 z2 z4 |] %22

